X: 166
T: Wedding Reel
M:C
L:1/8
Q:224
S: Lunasa : The merry sisters of fate
K:D
| DE | F2 BF AFEF | ~D3 E FABd | eefd efed | ABdA dBAG |
F3 B AFEF| ~D3 E FABd | eefd efed | AABe d2 DE |
F2 BF AFEF  | ~D3 E FABd | eefd efed | B4 dBAG |
F3 B AFEF | ~D3 E FABd | eefd efed | AABe dfef ||
|| A3 f edfd | ~B2 AA fedf | ABdA BdAB | dBAG EDB,D|
F2 BF AFEF | ~D3 E FABd | eefd efed | AABe dfef |
A3 f edfd | ~B2 AA fedf | ABdA BdAB | dBAG EDB,D |
F3 B AFEF | ~D3 E FABd | eefd efed | AABe d2 DE ||
